apps/site/public/icons/companies/krisenchat_light.svg

<svg xmlns="http://www.w3.org/2000/svg" width="154" height="40" viewBox="0 0 154 40" fill="none">
  <path d="M19.9098 23.439L28.6938 14.785C28.8127 14.6698 28.8499 14.4915 28.7867 14.3391C28.7235 14.1831 28.5749 14.0828 28.4077 14.0828H17.4945C17.3756 14.0828 17.2642 14.1348 17.1861 14.2202L9.56514 22.2537V14.458C9.56514 14.2314 9.38306 14.0493 9.1564 14.0493L0.539591 14.0828C0.312931 14.0828 0.130859 14.2648 0.130859 14.4915V39.5914C0.130859 39.818 0.312931 40.0001 0.539591 40.0001H9.1564C9.38306 40.0001 9.56514 39.818 9.56514 39.5914V33.1854L13.1508 30.1571L18.234 39.7809C18.3046 39.9146 18.4458 40.0001 18.5981 40.0001H29.0133C29.162 40.0001 29.2957 39.9221 29.3701 39.792C29.4444 39.6619 29.4407 39.5059 29.3701 39.3796L19.9098 23.439Z" fill="#161616"/>
  <path d="M11.7343 14.3911C11.7343 13.0274 10.627 11.9201 9.26335 11.9201H1.0627C0.412448 11.9201 0 11.3925 0 10.7422V1.17789C0 0.527636 0.412448 0 1.0627 0H28.2248C28.8751 0 29.4027 0.527636 29.4027 1.17789V10.7459C29.4027 11.3962 28.8751 11.9238 28.2248 11.9238H17.2931C16.6354 11.9238 16.0111 12.2062 15.5764 12.6967L11.738 17.0441V14.3948H11.7343V14.3911Z" fill="#2BF7C6"/>
  <path d="M52.8494 31.7212L51.4375 29.2056L50.3562 30.573L50.3785 33.9023C50.3785 34.0138 50.2893 34.0993 50.1815 34.0993H47.2907C47.1792 34.0993 47.0938 34.0101 47.0938 33.9023L47.1829 26.3817L47.0938 18.861C47.0938 18.7495 47.1829 18.6641 47.2907 18.6641H50.1815C50.293 18.6641 50.3785 18.7532 50.3785 18.861L50.3116 26.3185V27.0022L53.6 22.9C53.6892 22.8108 53.8192 22.744 53.9307 22.744H57.1746C57.2637 22.744 57.286 22.8331 57.2415 22.9L53.7338 26.8276L57.836 33.9321C57.8806 34.0212 57.8137 34.1067 57.7245 34.1067H54.2837C54.1722 34.1067 54.0422 34.0398 53.9976 33.9321L52.8494 31.7249V31.7212Z" fill="#161616"/>
  <path d="M58.7575 34.1032C58.646 34.1032 58.5605 34.014 58.5605 33.9063L58.6497 28.4144L58.5605 22.9448C58.5605 22.8333 58.6497 22.7479 58.7575 22.7479H61.6706C61.7821 22.7479 61.8676 22.837 61.8676 22.9448L61.7784 24.6652C62.659 23.3201 64.1825 22.6587 65.836 22.6587C66.0143 22.6587 66.189 22.681 66.345 22.7033C66.4565 22.7256 66.542 22.837 66.542 22.9448V24.9959C66.542 25.1074 66.4528 25.1705 66.345 25.1705C66.2113 25.1482 66.0589 25.1482 65.9252 25.1482C63.5879 25.1482 61.8453 26.4488 61.8676 29.0535V33.9063C61.8676 34.0177 61.7784 34.1032 61.6706 34.1032H58.7575Z" fill="#161616"/>
  <path d="M67.8454 21.6404C67.7339 21.6404 67.6484 21.5512 67.6484 21.4434V18.861C67.6484 18.7495 67.7376 18.6641 67.8454 18.6641H70.8031C70.9146 18.6641 71 18.7532 71 18.861V21.4434C71 21.5549 70.9109 21.6404 70.8031 21.6404H67.8454ZM67.8454 34.103C67.7339 34.103 67.6484 34.0138 67.6484 33.9061L67.7153 28.4365L67.6484 22.9446C67.6484 22.8331 67.7376 22.7477 67.8454 22.7477H70.8217C70.9332 22.7477 71.0186 22.8368 71.0186 22.9446L70.9517 28.4365L71.0186 33.9061C71.0186 34.0175 70.9294 34.103 70.8217 34.103H67.8454Z" fill="#161616"/>
  <path d="M77.8158 34.3704C74.505 34.3704 72.3908 33.0253 72.2793 30.4874C72.2793 30.3759 72.3685 30.2905 72.4762 30.2905H75.3002C75.4117 30.2905 75.4971 30.3797 75.4971 30.4874C75.5863 31.7656 76.4224 32.3193 77.9681 32.3193C79.2686 32.3193 79.9746 31.8102 79.9746 30.9296C79.9746 28.767 72.5394 30.8627 72.5394 26.0991C72.5394 23.7396 74.4381 22.48 77.5036 22.48C80.5691 22.48 82.4902 23.6727 82.6871 26.0545C82.7094 26.166 82.6202 26.2515 82.5087 26.2515H79.8185C79.7071 26.2515 79.6216 26.1623 79.5993 26.0545C79.4247 25.0847 78.8041 24.4902 77.459 24.4902C76.3778 24.4902 75.6941 24.8878 75.6941 25.8576C75.6941 28.0202 83.1293 25.813 83.1293 30.6435C83.1293 33.0253 80.8775 34.3704 77.812 34.3704H77.8158Z" fill="#161616"/>
  <path d="M95.2193 30.2646C95.3307 30.2646 95.4162 30.3538 95.3976 30.4615C95.1115 32.5349 93.1273 34.3891 89.9503 34.3891C86.1566 34.3891 84.1055 31.8958 84.1055 28.455C84.1055 24.8359 86.268 22.4541 89.8834 22.4541C93.4989 22.4541 95.6837 24.9251 95.7506 28.8935C95.7506 29.005 95.6614 29.0904 95.5537 29.0904H87.4348C87.5685 31.2307 88.4046 32.1782 89.9949 32.1782C91.0985 32.1782 91.8937 31.6692 92.2021 30.4578C92.2244 30.3463 92.3358 30.2609 92.4436 30.2609H95.223H95.2193V30.2646ZM89.902 24.639C88.5792 24.639 87.7841 25.4341 87.5202 26.9985H92.1761C92.0423 25.7834 91.3586 24.639 89.9057 24.639H89.902Z" fill="#161616"/>
  <path d="M97.1598 34.1031C97.0484 34.1031 96.9629 34.014 96.9629 33.9062L97.0298 28.6558L97.0075 22.941C97.0075 22.8296 97.0967 22.7441 97.2044 22.7441H100.006C100.118 22.7441 100.203 22.8333 100.203 22.941L100.136 24.1747C100.909 23.1826 102.21 22.4766 103.796 22.4766C106.2 22.4766 107.746 24.1078 107.746 26.8872V29.2689L107.813 33.9025C107.813 34.014 107.724 34.0994 107.612 34.0994H104.654C104.543 34.0994 104.458 34.0102 104.458 33.9025L104.502 29.2689V26.9317C104.502 25.6981 103.774 24.9029 102.782 24.9029C101.589 24.9029 100.311 26.0065 100.311 28.4329V29.2727L100.355 33.9062C100.355 34.0177 100.266 34.1031 100.158 34.1031H97.1598Z" fill="#161616"/>
  <path d="M114.716 34.3891C111.075 34.3891 108.916 32.0742 108.916 28.455C108.916 24.8359 111.079 22.4541 114.783 22.4541C117.696 22.4541 119.591 24.1076 119.855 26.5786C119.877 26.6901 119.788 26.7755 119.681 26.7755H117.013C116.901 26.7755 116.816 26.6863 116.793 26.5786C116.53 25.3004 115.734 24.6798 114.787 24.6798C113.111 24.7021 112.316 25.9135 112.316 28.429C112.316 30.9446 113.133 32.1559 114.787 32.1782C115.913 32.2005 116.749 31.4053 116.883 29.9265C116.905 29.815 116.994 29.7295 117.102 29.7295H119.837C119.948 29.7295 120.037 29.8187 120.011 29.9265C119.77 32.5089 117.696 34.3816 114.716 34.3816V34.3891Z" fill="#161616"/>
  <path d="M126.96 24.9067C125.901 24.9067 124.752 25.7242 124.377 27.3331L124.466 33.9062C124.466 34.0177 124.377 34.1032 124.269 34.1032H121.379C121.267 34.1032 121.182 34.014 121.182 33.9062L121.271 26.3633L121.182 18.8649C121.182 18.7534 121.271 18.668 121.379 18.668H124.269C124.381 18.668 124.466 18.7571 124.466 18.8649L124.399 24.0038C125.195 22.9894 126.339 22.4803 127.84 22.4803C130.4 22.4803 131.965 24.0038 131.898 27.3331V29.7595L131.965 33.9062C131.965 34.0177 131.876 34.1032 131.768 34.1032H128.791C128.68 34.1032 128.591 34.014 128.591 33.9062L128.658 29.8041L128.635 26.9355C128.613 25.5681 127.863 24.9067 126.96 24.9067Z" fill="#161616"/>
  <path d="M141.496 34.1032C141.384 34.1032 141.295 34.014 141.295 33.9062L141.34 32.7804C140.544 33.7502 139.422 34.3261 137.988 34.3261C134.766 34.3261 133.068 31.766 133.068 28.4589C133.068 25.1519 134.967 22.5249 138.055 22.5249C139.467 22.5249 140.57 23.034 141.343 23.9592L141.276 22.9448C141.276 22.8333 141.366 22.7478 141.473 22.7478H144.431C144.543 22.7478 144.632 22.837 144.632 22.9448L144.565 28.4367L144.632 33.9062C144.632 34.0177 144.543 34.1032 144.431 34.1032H141.496ZM138.913 32.119C140.522 32.119 141.384 30.9076 141.406 28.4998C141.429 26.0734 140.567 24.7506 138.98 24.7283C137.304 24.6838 136.442 25.9434 136.442 28.2806C136.442 30.8407 137.323 32.1413 138.913 32.119Z" fill="#161616"/>
  <path d="M153.186 33.687C153.186 33.7984 153.097 33.9062 153.012 33.9508C152.372 34.17 151.644 34.3261 150.938 34.3261C149.017 34.3261 147.189 33.3563 147.189 30.7738L147.211 25.0813H145.933C145.822 25.0813 145.732 24.9921 145.732 24.8844V22.9448C145.732 22.8333 145.822 22.7478 145.933 22.7478H147.211L147.189 20.1022C147.189 19.9907 147.278 19.9053 147.39 19.9053H150.325C150.437 19.9053 150.522 19.9945 150.522 20.1022L150.5 22.7478H153.015C153.127 22.7478 153.212 22.837 153.212 22.9448V24.8844C153.212 24.9958 153.123 25.0813 153.015 25.0813H150.477L150.5 30.6847C150.5 31.6545 150.986 31.9629 151.711 31.9629C152.242 31.9629 152.659 31.8737 152.989 31.7659C153.101 31.7436 153.186 31.8328 153.186 31.922V33.687Z" fill="#161616"/>
</svg>

<svg xmlns="http://www.w3.org/2000/svg" width="154" height="40" fill="none" viewBox="0 0 154 40"><path fill="#161616" d="m19.91 23.439 8.784-8.654a.41.41 0 0 0 .093-.446.41.41 0 0 0-.38-.256H17.495a.42.42 0 0 0-.308.137l-7.62 8.034v-7.796a.41.41 0 0 0-.41-.409l-8.616.034a.41.41 0 0 0-.41.409v25.1c0 .226.183.408.41.408h8.616a.41.41 0 0 0 .41-.409v-6.406l3.585-3.028 5.083 9.624c.07.134.212.22.364.22h10.415a.41.41 0 0 0 .357-.209.42.42 0 0 0 0-.412z"/><path fill="#2bf7c6" d="M11.734 14.391a2.47 2.47 0 0 0-2.47-2.47H1.062C.413 11.92 0 11.392 0 10.741V1.178C0 .528.412 0 1.063 0h27.162c.65 0 1.178.528 1.178 1.178v9.568c0 .65-.528 1.178-1.178 1.178H17.293c-.658 0-1.282.282-1.717.773l-3.838 4.347v-2.65h-.004z"/><path fill="#161616" d="m52.85 31.721-1.413-2.515-1.08 1.367.022 3.33c0 .11-.09.196-.197.196H47.29a.196.196 0 0 1-.197-.197l.089-7.52-.09-7.521c0-.111.09-.197.198-.197h2.89c.112 0 .198.09.198.197l-.067 7.458v.683L53.6 22.9a.5.5 0 0 1 .33-.156h3.245c.089 0 .111.09.067.156l-3.508 3.928 4.102 7.104c.045.09-.022.175-.111.175h-3.441c-.112 0-.242-.067-.286-.175l-1.149-2.207zm5.908 2.382a.196.196 0 0 1-.198-.197l.09-5.492-.09-5.47c0-.11.09-.196.197-.196h2.914c.111 0 .197.089.197.197l-.09 1.72c.881-1.345 2.405-2.006 4.058-2.006.178 0 .353.022.509.044a.26.26 0 0 1 .197.242v2.05c0 .112-.09.175-.197.175-.134-.022-.286-.022-.42-.022-2.337 0-4.08 1.3-4.057 3.906v4.852c0 .112-.09.197-.197.197zm9.087-12.463a.196.196 0 0 1-.197-.197v-2.582c0-.111.09-.197.197-.197h2.958c.112 0 .197.09.197.197v2.582c0 .112-.09.197-.197.197zm0 12.463a.196.196 0 0 1-.197-.197l.067-5.47-.067-5.491c0-.112.09-.197.197-.197h2.977c.111 0 .197.089.197.197l-.067 5.491.067 5.47c0 .111-.09.197-.197.197zm9.971.267c-3.311 0-5.425-1.345-5.537-3.883 0-.111.09-.196.197-.196H75.3c.112 0 .197.089.197.196.09 1.279.925 1.832 2.471 1.832 1.3 0 2.007-.509 2.007-1.39 0-2.162-7.436-.066-7.436-4.83 0-2.36 1.9-3.619 4.965-3.619s4.986 1.193 5.183 3.575c.022.111-.067.197-.178.197h-2.69c-.112 0-.197-.09-.22-.197-.174-.97-.795-1.565-2.14-1.565-1.081 0-1.765.398-1.765 1.368 0 2.162 7.435-.045 7.435 4.785 0 2.382-2.252 3.727-5.317 3.727zm17.404-4.105c.11 0 .196.089.178.197-.286 2.073-2.27 3.927-5.448 3.927-3.793 0-5.844-2.493-5.844-5.934 0-3.62 2.162-6 5.777-6s5.8 2.47 5.868 6.439c0 .111-.09.196-.197.196h-8.12c.135 2.14.97 3.088 2.56 3.088 1.105 0 1.9-.509 2.208-1.72a.26.26 0 0 1 .242-.197h2.779-.004zm-5.318-5.626c-1.323 0-2.118.795-2.382 2.36h4.656c-.134-1.216-.817-2.36-2.27-2.36zm7.258 9.464a.196.196 0 0 1-.197-.197l.067-5.25-.023-5.715c0-.111.09-.197.197-.197h2.802c.112 0 .197.09.197.197l-.067 1.234c.773-.992 2.074-1.698 3.66-1.698 2.404 0 3.95 1.63 3.95 4.41v2.382l.067 4.634a.197.197 0 0 1-.201.196h-2.958a.195.195 0 0 1-.196-.196l.044-4.634v-2.337c0-1.234-.728-2.03-1.72-2.03-1.193 0-2.471 1.104-2.471 3.53v.84l.044 4.634a.196.196 0 0 1-.197.197zm17.556.287c-3.641 0-5.8-2.316-5.8-5.935 0-3.62 2.163-6 5.867-6 2.913 0 4.808 1.653 5.072 4.124.022.111-.067.197-.174.197h-2.668c-.112 0-.197-.09-.22-.197-.263-1.279-1.059-1.9-2.006-1.9-1.676.023-2.471 1.235-2.471 3.75 0 2.516.817 3.727 2.471 3.75 1.126.021 1.962-.774 2.096-2.253.022-.111.111-.196.219-.196h2.735c.111 0 .2.089.174.197-.241 2.582-2.315 4.455-5.295 4.455zm12.244-9.483c-1.059 0-2.208.817-2.583 2.426l.089 6.573a.196.196 0 0 1-.197.197h-2.89a.196.196 0 0 1-.197-.197l.089-7.543-.089-7.498c0-.112.089-.197.197-.197h2.89c.112 0 .197.09.197.197l-.067 5.139c.796-1.015 1.94-1.524 3.441-1.524 2.56 0 4.125 1.524 4.058 4.853v2.427l.067 4.146a.196.196 0 0 1-.197.197h-2.977a.2.2 0 0 1-.2-.197l.067-4.102-.023-2.868c-.022-1.368-.772-2.03-1.675-2.03m14.536 9.197a.2.2 0 0 1-.201-.197l.045-1.126c-.796.97-1.918 1.546-3.352 1.546-3.222 0-4.92-2.56-4.92-5.867s1.899-5.934 4.987-5.934c1.412 0 2.515.509 3.288 1.434l-.067-1.014c0-.112.09-.197.197-.197h2.958c.112 0 .201.089.201.197l-.067 5.492.067 5.47a.197.197 0 0 1-.201.196zm-2.583-1.984c1.609 0 2.471-1.211 2.493-3.62.023-2.426-.839-3.748-2.426-3.77-1.676-.045-2.538 1.214-2.538 3.552 0 2.56.881 3.86 2.471 3.838m14.273 1.568c0 .111-.089.22-.174.264-.64.219-1.368.375-2.074.375-1.921 0-3.749-.97-3.749-3.552l.022-5.693h-1.278a.2.2 0 0 1-.201-.197v-1.94c0-.11.09-.196.201-.196h1.278l-.022-2.646c0-.111.089-.197.201-.197h2.935c.112 0 .197.09.197.197l-.022 2.646h2.515c.112 0 .197.089.197.197v1.94a.196.196 0 0 1-.197.196h-2.538l.023 5.604c0 .97.486 1.278 1.211 1.278.531 0 .948-.09 1.278-.197a.163.163 0 0 1 .197.156z"/></svg>
